images/home.svg

<svg width="25" height="26" viewBox="0 0 25 26" fill="none" xmlns="http://www.w3.org/2000/svg">
<path d="M24.4233 10.7854L13.3414 0.892078C12.9811 0.570452 12.5067 0.396394 12.0173 0.406283C11.5279 0.416173 11.0613 0.609246 10.7152 0.945145L0.523047 10.8354L0 11.3429V25.9232H9.82143V16.8259H15.1786V25.9232H25V11.3003L24.4233 10.7854ZM12.0557 2.13873C12.0714 2.13873 12.0617 2.14203 12.055 2.14848C12.048 2.14203 12.04 2.13873 12.0557 2.13873ZM23.2143 24.1904H16.9643V16.8259C16.9643 16.3663 16.7761 15.9256 16.4413 15.6006C16.1064 15.2756 15.6522 15.0931 15.1786 15.0931H9.82143C9.34783 15.0931 8.89362 15.2756 8.55874 15.6006C8.22385 15.9256 8.03571 16.3663 8.03571 16.8259V24.1904H1.78571V12.0607L12.0557 2.17041C12.0564 2.16976 12.0565 2.16916 12.057 2.16851L23.2143 12.0607V24.1904Z" fill="#404040"/>
</svg>

<?xml version="1.0" encoding="UTF-8"?>
<svg id="Layer_1" data-name="Layer 1" xmlns="http://www.w3.org/2000/svg" version="1.1" viewBox="0 0 25 26">
  <defs>
    <style>
      .cls-1 {
        fill: #000;
        stroke-width: 0px;
      }
    </style>
  </defs>
  <path class="cls-1" d="M24.4,10.8L13.3.9c-.4-.3-.8-.5-1.3-.5s-1,.2-1.3.5L.5,10.8l-.5.5v14.6h9.8v-9.1h5.4v9.1h9.8v-14.6s-.6-.5-.6-.5ZM12.1,2.1h0ZM23.2,24.2h-6.2v-7.4c0-.5-.2-.9-.5-1.2s-.8-.5-1.3-.5h-5.4c-.5,0-.9.2-1.3.5-.3.3-.5.8-.5,1.2v7.4H1.8v-12.1L12.1,2.2h0l11.2,9.9v12.1h0Z"/>
</svg>
